X:20
T:High Cauled Cap, The
T:High Caul Cap
R:set dance
Z:id:hn-setdance-20
M:2/4
L:1/8
K:G
D | G>A Bd | c/B/A/G/ B/A/G/A/ | BA AG/A/ | BA AD |
G>A Bd | c/B/A/G/ B/c/B/A/ | GE ED/E/ | GE E :|
|: eg dB | c/B/A/G/ B/A/G/A/ | BA AG/A/ | BA Ad |
eg dB | c/B/AG/ B/c/B/A/ | GE ED/E/ | GE E :|
